X: 1299
T: Bonnie Scotland (Waltz)
B: australian traditional tunes wiki
M:3/4
L:1/4
R: Waltz
Q: 1/4=100
K:G
V:1 
"G"B2 B | B2 A | G2 B, | D3 | "C"E2 G |"G" D2 G | B2 A |"D"A3 |
"G"B2 B/c/ | B2 A | G2 B, | D3 | "C"E2 G |"D"  FG A |"G" G3- | G2 z |
"C"c2 d | e2 c |"G" B2 c | d3 |"D7" A2 G | "C"G2 A |"Em"  B2 A |"D7" A3 |
"C"c2 d | e2 c |"G" B2 c | d3 |"D7" A2 G/A/ | "G"G2 A | "D" A2 F |"G" G3 |]
% abcbook-tune_id 6342d53a8333d7d7dcbeefad


% abcbook-boost 0
% abcbook-tablature 
% abcbook-transpose 
% abcbook-lastupdated 1665324357998
% abcbook-soundfonts 
% abcbook-repeats 1
% NFF Book 2020

